X:1
T:Title
%%score ( 1 2 ) { 3 | 4 }
L:1/8
Q:1/4=140
M:2/2
K:F
V:1 treble nm="Grand Piano, Unnamed-000"
V:2 treble 
V:3 bass nm="Choir Pad, Gr�fenberg, CM"
V:4 bass 
V:1
 [A,F]4 [B,D]2 C2 | [DF]4 [EG]4 | [FA]2 [FA]2 [EG]4- | [EG]2 [FA]2 [Fc]2 [GB]2 | [FA]4 [EG]4 | F8 | %6
w: By~Johann~Cr�ger,~1647 * *||||||
 [Fc]4 [FA]2 [Fc]2 | d4 z4 | [EB]2 [FA]2 [EG]4- | [EG]2 [Ec]2 F2 [GB]2 | [FA]4 [EG]4 | F8 |] %12
w: ||||||
V:2
 x8 | x8 | x8 | x8 | x8 | x8 | x8 | D2 E2 [Fc]4 | x8 | x8 | x8 | x8 |] %12
V:3
 F,4 E,2 F,2 | F,4 B,4 | A,2[K:treble] C2 C4- | C2 C2 C2 D2 | C4 C2[K:bass] B,2 | A,8 | A,4 C2 C2 | %7
 F,2 G,2 A,4 | B,2[K:treble] C2 C4- | C2 C2 A,2 D2 | C4 C2 B,2 | A,8 |] %12
V:4
 F,,4 G,,2 A,,2 | B,,4 G,,4 | F,,2 A,,2 C,4- | C,2 F,2 A,,2 B,,2 | C,4 C,4 | F,,8 | F,4 F,2 A,,2 | %7
 B,,4 A,,4 | G,,2 F,,2 C,4- | C,2 A,,2 D,2 G,,2 | A,,3 B,, C,4 | F,,8 |] %12

